!!!!SEGMENT: pl-sa--549-a-ix-29--022_anonim--mazurek.krn
!!!cenid: 18xx:476
!!!COM: Anonim
!!!COM-rismid: pe30004985
!!!CDT:
!!!CNT:
!!!OTL: Mazurek
!!!PDT:
!!!AGN: Secular; Mazurka
!!!SMS-siglum: PL-SA
!!!SMS-shelfmark: 549/A IX 29
!!!SMS-shelfwork: 022 W
!!!SMS-variant:
!!!SMS-altvar:
!!!NIFC-rismid: 1001068860
!!!URL-scan: http://bc.bdsandomierz.pl/dlibra/publication/1441/edition/1409/content
!!!ONB-nifc: Str. 16, s. 1-2
!!!AIN: 1 piano
!!!key: C
**kern	**kern	**fing
*part1	*part1	*
*staff2	*staff1	*
*I"Piano	*I"Piano	*
*Ipiano	*Ipiano	*
*ICklav	*ICklav	*
*IGsolo	*IGsolo	*
*>[A,B,B]	*>[A,B,B]	*
*>A	*>A	*
*clefG2	*clefG2	*
*k[]	*k[]	*
*C:	*C:	*
*M3/8	*M3/8	*
=1	=1	=1
8c>\L	4gg/	4
8g> 8e>\	.	.
8g>J 8e>\	16aa/LL	.
.	16gg/JJ	.
=2	=2	=2
*rep	*	*
!	!LO:TUP:a:problem=klamra łukowa	!
8c>\L	24gg/LL	.
.	24aa/	.
.	24gg/JJ	.
8g> 8e>\	8ee/L	.
8g>J 8e>\	16aa/L	.
.	16gg/JJ	.
*Xrep	*	*
=3	=3	=3
!	!LO:TUP:a:problem=klamra łukowa	!
8B>\L	24ff/LL	.
.	24gg/	.
.	24ff/JJ	.
8g> 8d>\	8dd/L	.
8g>J 8d>\	16ee/L	.
.	16ff/JJ	.
=4	=4	=4
*	*Xtuplet	*
8c>\L	24gg/LL	.
.	24aa/	.
.	24gg/JJ	.
8g> 8e>\	8ee/L	.
8g>J 8e>\	8cc/J	.
=5	=5	=5
*rep	*	*
8c>\L	4gg/	.
8g> 8e>\	.	.
8g>J 8e>\	16aa/LL	.
.	16gg/JJ	.
*Xrep	*	*
=6	=6	=6
*rep	*tuplet	*
!	!LO:TUP:a:problem=klamra łukowa	!
8c>\L	24gg/LL	.
.	24aa/	.
.	24gg/JJ	.
!	!LO:TUP:a:problem=klamra łukowa	!
8g> 8e>\	24ee/LL	.
.	24ff/	.
.	24ff#X/JJ	.
!	!LO:N:vis=12	!
8g>J 8e>\	24gg/LL	.
!	!LO:N:vis=12	!
.	24aa/	.
!	!LO:N:vis=12	!
.	24gg/JJ	.
*Xrep	*	*
!!LO:LB:g=original
=7	=7	=7
*	*Xtuplet	*
8B/L	24ff\LL	.
.	24gg\	.
.	24ff\JJ	.
8g 8d/	16dd\LL	.
.	16ee\	.
8gJ 8d/	16ff\	.
.	16ff#X\JJ	.
=8	=8	=8
8c/L	32aa\LLL	.
.	32gg\	.
.	32ff#X\	.
.	32gg\JJJ	.
8g 8e/	8ee\L	.
8gJ 8e/	8cc\J	.
=9!|:	=9!|:	=9!|:
*>B	*>B	*>B
*	*tuplet	*
!	!LO:TUP:a:problem=klamra łukowa	!
8G>\L	24dd/LL	.
.	24ee/	.
.	24dd/JJ	.
8g> 8d>\	16b/LL	.
.	16g/	.
8g>J 8d>\	16a/	.
.	16b/JJ	.
=10	=10	=10
*clefG2	*	*
8c/L	16cc\LL	.
.	16ee\	.
8g 8e/	16gg\	.
.	16ff#X\	.
8gJ 8e/	16aa\	.
.	16gg\JJ	.
=11	=11	=11
!	!LO:TUP:b:problem=klamra łukowa	!
8G/L	24ffn/LL	.
.	24gg/	.
.	24ff/JJ	.
8g 8d/	8dd/L	.
8gJ 8d/	16ee/L	.
.	16ff/JJ	.
=12	=12	=12
!	!LO:TUP:a:problem=klamra łukowa	!
8c/L	24gg\LL	.
.	24aa\	.
.	24gg\JJ	.
8g 8e/	8ee\L	.
8gJ 8e/	8cc\J	.
=:|!	=:|!	=:|!
*-	*-	*-
!!!system-decoration: {s1,s2}
!!!RDF**kern: > = above
!!!ENC: Tomasz Grochalski
!!!END: 2020-06-17
!!!ENC: Marta Lawrence
!!!END: 2022-01-05
